X:1
T:Title
%%score { 1 | 2 }
L:1/8
M:4/4
K:G
V:1 treble nm="Grand Piano"
V:2 bass 
V:1
 z4 z2[Q:1/4=100] [B,D]2 | [B,G]2 [DB]2 A2 G2 | F2 E2 [B,D]2 B2 | [Fc]3 [Fc] G2 A2 |[M:3/4] B6 | %5
[M:1/4] D2 |[M:4/4] G2 B2 [DFA]2 [B,EG]2 | [G,DF]2 [G,CE]2 [G,B,D]2 [DB]2 | %8
 [Fc]3 [Fc] [A,DF]2 [CDA]2 |[M:3/4] [B,DG]6 |[M:1/4] B2 |[M:4/4] d3 e d2 B2 | %12
 [Fc]3 [Fd] [Fc]2 [FA]2 | B2 G2 d2 B2 |[M:3/4] [DFA]6 |[M:1/4] [CD]2 | %16
[M:4/4] [B,DG]2 [DGB]2 [DFA]2 [G,EG]2 | [G,DF]2 [G,CE]2 [G,B,D]2 [DB]2 | %18
 [Fc]3 [Fc] [A,DF]2 [CDA]2 |[M:3/4] [B,DG]6 |] %20
V:2
 z4 z2 [G,,D,]2 | [G,,D,]2 [G,,G,]2 [D,F,C]2 [E,G,C]2 | [C,G,C]2 [C,G,C]2 [G,,G,]2 [G,D]2 | %3
 [D,A,]3 [D,A,] [D,B,]2 [D,F,D]2 |[M:3/4] [G,D]6 |[M:1/4] [G,B,]2 | %6
[M:4/4][K:treble] [G,B,D]2 [G,DG]2[K:bass] D,2 E,2 | B,,2 C,2 G,,2 G,2 | [D,A,]3 [D,A,] D,2 D,2 | %9
[M:3/4] G,,6 |[M:1/4][K:treble] [G,DG]2 |[M:4/4] [G,B,G]3 [G,CG] [G,B,G]2 [G,G]2 | %12
 [D,A,]3 [D,B,] [D,A,]2 [D,D]2 | [G,DG]2 [G,B,D]2 [B,DG]2 [G,DG]2 |[M:3/4][K:bass] D,6 | %15
[M:1/4] F,2 |[M:4/4] G,2 G,2 D,2 E,2 | B,,2 C,2 G,,2 G,2 | [D,A,]3 [D,A,] D,2 D,2 |[M:3/4] G,,6 |] %20

